papirus/48x48/apps/credentials-preferences.svg

<?xml version="1.0" encoding="UTF-8" standalone="no"?>
<svg id="svg2817" xmlns:rdf="http://www.w3.org/1999/02/22-rdf-syntax-ns#" xmlns="http://www.w3.org/2000/svg" height="48" width="48" version="1.0" xmlns:cc="http://creativecommons.org/ns#" xmlns:dc="http://purl.org/dc/elements/1.1/">
 <metadata id="metadata57">
  <rdf:RDF>
   <cc:Work rdf:about="">
    <dc:format>image/svg+xml</dc:format>
    <dc:type rdf:resource="http://purl.org/dc/dcmitype/StillImage"/>
    <dc:title/>
   </cc:Work>
  </rdf:RDF>
 </metadata>
 <path id="path3237" opacity=".2" style="enable-background:new" d="m2.0234 28.568c-0.0083 0.175-0.0234 0.347-0.0234 0.524 0 6.025 4.9249 10.908 11 10.908h23.375c5.316 0 9.625-4.273 9.625-9.545 0-0.173-0.014-0.343-0.023-0.514-0.258 5.044-4.452 9.059-9.602 9.059h-23.375c-5.9129 0-10.723-4.63-10.977-10.432z"/>
 <path id="path5884" style="enable-background:new" fill="#ccc" d="m24 9c-5.695 0-10.545 3.458-12.633 8.352-5.3013 0.782-9.367 5.264-9.367 10.739 0 6.025 4.9249 10.909 11 10.909h23.375c5.316 0 9.625-4.274 9.625-9.545 0-4.9-3.715-8.915-8.508-9.461-1.25-6.254-6.818-10.994-13.492-10.994z"/>
 <path id="path4189" opacity=".2" style="enable-background:new" fill="#fff" d="m24 9c-5.695 0-10.545 3.457-12.633 8.352-5.3013 0.781-9.367 5.265-9.367 10.74 0 0.161 0.0165 0.317 0.0234 0.476 0.2507-5.234 4.213-9.46 9.3436-10.216 2.088-4.895 6.938-8.352 12.633-8.352 6.674 0 12.242 4.739 13.492 10.994 4.624 0.526 8.234 4.284 8.485 8.947 0.008-0.162 0.023-0.322 0.023-0.486 0-4.9-3.715-8.915-8.508-9.461-1.25-6.255-6.818-10.994-13.492-10.994z"/>
 <g id="g4149" opacity=".5" transform="translate(-408,-493)">
  <path id="path6174-9" style="color:#000000;block-progression:tb;text-decoration-line:none;text-transform:none;text-indent:0" d="m435 512.95c-0.38828 0-0.75331 0.0893-1.084 0.23828 0.0546 0.26205 0.084 0.53308 0.084 0.81054 0 1.1021-0.45422 2.1042-1.1836 2.8301 0.46 0.7 1.26 1.17 2.18 1.17 1.4327 0 2.5938-1.1303 2.5938-2.5254s-1.1611-2.5273-2.5938-2.5273zm0 6.05c-0.1961 0-0.37171 0.0126-0.55273 0.0215 0.69756 0.39966 1.2291 0.87712 1.6035 1.377 0.94 1.26 0.95 2.6 0.95 2.6h3v-1s0-3-5-3z"/>
  <path id="path4193" style="color:#000000;block-progression:tb;text-decoration-line:none;text-transform:none;text-indent:0" d="m430 511c1.6569 0 3 1.3432 3 3s-1.3431 3-3 3-3-1.3432-3-3 1.3431-3 3-3z"/>
  <path id="path6174-8-0" style="color:#000000;block-progression:tb;text-decoration-line:none;text-transform:none;text-indent:0" d="m430 519c6-0.01 6 4 6 4v1h-12v-1s0-4 6.0002-4.0034z"/>
 </g>
</svg>

<?xml version="1.0" encoding="UTF-8" standalone="no"?>
<!-- Created with Inkscape (http://www.inkscape.org/) -->

<svg
   xmlns:dc="http://purl.org/dc/elements/1.1/"
   xmlns:cc="http://creativecommons.org/ns#"
   xmlns:rdf="http://www.w3.org/1999/02/22-rdf-syntax-ns#"
   xmlns:svg="http://www.w3.org/2000/svg"
   xmlns="http://www.w3.org/2000/svg"
   xmlns:sodipodi="http://sodipodi.sourceforge.net/DTD/sodipodi-0.dtd"
   xmlns:inkscape="http://www.inkscape.org/namespaces/inkscape"
   id="svg2817"
   height="48"
   width="48"
   version="1.0"
   inkscape:version="0.91 r13725"
   sodipodi:docname="credentials-preferences.svg">
  <defs
     id="defs13" />
  <sodipodi:namedview
     pagecolor="#ffffff"
     bordercolor="#666666"
     borderopacity="1"
     objecttolerance="10"
     gridtolerance="10"
     guidetolerance="10"
     inkscape:pageopacity="0"
     inkscape:pageshadow="2"
     inkscape:window-width="1600"
     inkscape:window-height="843"
     id="namedview11"
     showgrid="false"
     inkscape:zoom="4.9166667"
     inkscape:cx="-17.59322"
     inkscape:cy="24"
     inkscape:window-x="0"
     inkscape:window-y="0"
     inkscape:window-maximized="1"
     inkscape:current-layer="svg2817" />
  <metadata
     id="metadata57">
    <rdf:RDF>
      <cc:Work
         rdf:about="">
        <dc:format>image/svg+xml</dc:format>
        <dc:type
           rdf:resource="http://purl.org/dc/dcmitype/StillImage" />
        <dc:title />
      </cc:Work>
    </rdf:RDF>
  </metadata>
  <path
     inkscape:connector-curvature="0"
     id="path3237"
     style="opacity:0.3;enable-background:new"
     d="M 2.0234,28.568 C 2.0151,28.743 2,28.915 2,29.092 2,35.117 6.9249,40 13,40 l 23.375,0 C 41.691,40 46,35.727 46,30.455 46,30.282 45.986,30.112 45.977,29.941 45.719,34.985 41.525,39 36.375,39 L 13,39 C 7.0871,39 2.277,34.37 2.023,28.568 Z" />
  <path
     inkscape:connector-curvature="0"
     id="path5884"
     style="fill:#cccccc;fill-opacity:1;enable-background:new"
     d="M 24,9 C 18.305,9 13.455,12.458 11.367,17.352 6.0657,18.134 2,22.616 2,28.091 2,34.116 6.9249,39 13,39 l 23.375,0 C 41.691,39 46,34.726 46,29.455 46,24.555 42.285,20.54 37.492,19.994 36.242,13.74 30.674,9 24,9 Z" />
  <path
     inkscape:connector-curvature="0"
     id="path4189"
     style="opacity:0.2;fill:#ffffff;enable-background:new"
     d="M 24,9 C 18.305,9 13.455,12.457 11.367,17.352 6.0657,18.133 2,22.617 2,28.092 2,28.253 2.0165,28.409 2.0234,28.568 2.2741,23.334 6.2364,19.108 11.367,18.352 13.455,13.457 18.305,10 24,10 c 6.674,0 12.242,4.739 13.492,10.994 4.624,0.526 8.234,4.284 8.485,8.947 C 45.985,29.779 46,29.619 46,29.455 46,24.555 42.285,20.54 37.492,19.994 36.242,13.739 30.674,9 24,9 Z" />
  <g
     style="opacity:0.5"
     id="g4149"
     transform="translate(-408,-493)">
    <path
       inkscape:connector-curvature="0"
       id="path6174-9"
       style="color:#000000;text-indent:0;text-decoration:none;text-decoration-line:none;text-transform:none;block-progression:tb"
       d="m 435,512.95 c -0.38828,0 -0.75331,0.0893 -1.084,0.23828 0.0546,0.26205 0.084,0.53308 0.084,0.81054 0,1.1021 -0.45422,2.1042 -1.1836,2.8301 0.46,0.7 1.26,1.17 2.18,1.17 1.4327,0 2.5938,-1.1303 2.5938,-2.5254 0,-1.3951 -1.1611,-2.5273 -2.5938,-2.5273 z m 0,6.05 c -0.1961,0 -0.37171,0.0126 -0.55273,0.0215 0.69756,0.39966 1.2291,0.87712 1.6035,1.377 0.94,1.26 0.95,2.6 0.95,2.6 l 3,0 0,-1 c 0,0 0,-3 -5,-3 z" />
    <path
       inkscape:connector-curvature="0"
       id="path4193"
       style="color:#000000;text-indent:0;text-decoration:none;text-decoration-line:none;text-transform:none;block-progression:tb"
       d="m 430,511 c 1.6569,0 3,1.3432 3,3 0,1.6568 -1.3431,3 -3,3 -1.6569,0 -3,-1.3432 -3,-3 0,-1.6568 1.3431,-3 3,-3 z" />
    <path
       inkscape:connector-curvature="0"
       id="path6174-8-0"
       style="color:#000000;text-indent:0;text-decoration:none;text-decoration-line:none;text-transform:none;block-progression:tb"
       d="m 430,519 c 6,-0.01 6,4 6,4 l 0,1 -12,0 0,-1 c 0,0 0,-4 6.0002,-4.0034 z" />
  </g>
</svg>
